!!!!SEGMENT: pl-kozmzk--mzk-m-346--001-040_walczynski-franciszek--cantantibus-organis-op-10-40-allegretto.krn
!!!cenid: 18xx:2835
!!!COM: Walczyński, Franciszek
!!!COM-rismID: pe30021989
!!!CDT: ~1852-1937
!!!CNT: Polish
!!!GTL: Cantantibus organis op. 10
!!!OTL: 40. Allegretto
!!!OMV: 040
!!!PDT: 1898
!!!AGN: Secular
!!!YEC: Copyright 2022 Narodowy Instytut Fryderyka Chopina (https://polishscores.org)
!!!YEM: License CC-BY-4.0 (https://creativecommons.org/licenses/by/4.0)
!!!SMS-siglum: PL-KOZmzk
!!!SMS-shelfmark: mzk/m/346
!!!SMS-shelfwork: 001-040 G
!!!SMS-variant:
!!!SMS-altvar:
!!!NIFC-rismSourceID: 1001099615
!!!NIFC-rismChildID: 1001109440
!!!NIFC-islandoraID: pl-kozmzk:7453
!!!URL-pdf-islandora: https://repozytorium.nifc.pl/islandora/object/pl-kozmzk%3A7453/datastream/PDF/view
!!!URL-scan: https://polish.musicsources.pl/pl/lokalizacje/galeria/druki-muzyczne/7581 @EN{Scan on Polish Music Sources Website} @PL{Skany w portalu Dziedzictwo Muzyki Polskiej w otwartym dostępie}
!!!IIIF:
!!!ONB-nifc:
!!!AIN: 1 organ
!!!key:
**kern	**kern	**dynam
*part1	*part1	*
*staff2	*staff1	*
*Iorgan	*Iorgan	*
*I"Organo	*I"Organo	*
*clefF4	*clefG2	*
*k[b-e-]	*k[b-e-]	*
*B-:	*B-:	*
*M3/4	*M3/4	*
=1	=1	=1
*^	*^	*
!!LO:TX:a:B:t=Allegretto.
(8.B-/L	(8.B-\L	(8.b-/L	8.b-\L	f
16A/Jk	16A\Jk	16a/Jk	16a\Jk	.
4B-/	4B-\	4b-/	4b-\	.
4F/	4F\	4f/	4f\	.
=2	=2	=2	=2	=2
[2.B-/	2BB-\	2dd/	2.f\	.
.	4D\	4b-/	.	.
=3	=3	=3	=3	=3
2B-/]	2E-\	2g/	2.e-\	.
4A/	4F\	4a/	.	.
=4	=4	=4	=4	=4
2.B-/)	2.BB-\)	2b-/	2.d\	.
.	.	4f/)	.	.
=5	=5	=5	=5	=5
!	!	!	!	!LO:DY:a
([2.B-/	(2.A-X\	(4b-/	2.d\	p
.	.	8cc/L	.	.
.	.	8b-/	.	.
.	.	8a/	.	.
.	.	8b-/J	.	.
=6	=6	=6	=6	=6
2.B-/_	2G\	2.ee-/	2.e-\	.
.	4G-X\	.	.	.
=7	=7	=7	=7	=7
4B-/]	4F\	4dd/	2f\	.
4An/	2E-\	2cc/	.	.
4G/	.	.	4g\	.
=8	=8	=8	=8	=8
2.A/)	2.D\)	2.dd/)	2.f#X\	.
=9	=9	=9	=9	=9
2.rF	2.rBB	(8.dd/L	2.r	pp
.	.	16cc#X/Jk	.	.
.	.	4dd/	.	.
.	.	4a/	.	.
=10	=10	=10	=10	=10
!!LO:LB:g=original
2.rF	2.rBB	4.ff#X/	(8d\L	.
.	.	.	8c#X\	.
.	.	.	8d\	.
.	.	8een/	8en\	.
.	.	8dd/L	8f#X\	.
.	.	8cc#X/J	8a\J	.
=11	=11	=11	=11	=11
2.rF	2.rBB	8.bn/L	8.g\L	.
!	!	!LO:SIC:v:n=2:s=16f#	!	!
.	.	16a#X/K	16f\K	.
.	.	8b/	8g\	.
.	.	8dd/	8b\	.
!	!	!LO:SIC:v:n=2:s=8an	!	!
.	.	8cc#X/	8a#\	.
.	.	8b/J	8g\J	.
=12	=12	=12	=12	=12
2.rF	2.rBB	2a/	2f#X\	.
.	.	4f#/)	4d\)	.
=13	=13	=13	=13	=13
!LO:TX:b=2::i:t=Ped.	!	!	!	!LO:DY:t=pf
2.G/	8.GG\L	(8.b-X/L	([2.d\	p
.	16AA\Jk	16a/Jk	.	.
.	2BB-\	4g/	.	.
.	.	8fn/L	.	.
.	.	8g/J	.	.
=14	=14	=14	=14	=14
2F/	[2.AA\	2a/	2.d\_	.
4A/	.	4f/	.	.
=15	=15	=15	=15	=15
4G/	2.AA\]	2.en/	2d\]	.
4B-/	.	.	.	.
8A/L	.	.	4c#X\	.
8G/J	.	.	.	.
=16	=16	=16	=16	=16
2.F/	2.D\	2.d/)	2.d\)	.
=17	=17	=17	=17	=17
[2.F/	[2.C\	[2.e-X/	4d\	pp
.	.	.	4c\	.
.	.	.	4B-\	.
=18	=18	=18	=18	=18
2.F/]	2.C;\]	2.e-;/]	2.A\	.
=19	=19	=19	=19	=19
!	!	!	!	!LO:DY:t=pf
2F/	8.BB-\L	(8.b-/L	8.d\L	p
.	16C\Jk	16a/Jk	16e-\Jk	.
.	2BB-\	4b-/	2d\	.
4B-/	.	4f/	.	.
=20	=20	=20	=20	=20
!!LO:PB:g=original
(2A/	(2D\	2dd/	2f\	.
4d/	4GG\	4b-/	4g\	.
=21	=21	=21	=21	=21
2.c/	4BB-\	4g/	2.e-\	.
.	4AA\	4f/	.	.
.	4FF\	4a/	.	.
=22	=22	=22	=22	=22
2.B-/)	2.BB-\)	2b-/	2.d\	<
.	.	4f/)	.	[[
=23	=23	=23	=23	=23
!	!	!	!	!LO:DY:a
2B-/	(2GG\	(2b-/	(2d\	f
4d/	4FF\	4bn/	[4g\	.
=24	=24	=24	=24	=24
2c/	2EE-\	2cc/	2.g\_	.
4d-X/	4EEn\	4b-X/	.	.
=25	=25	=25	=25	=25
!	!	!	!	!LO:HP:b=2
4e-/	2.FF\	2.a/	4g\]	<
4d/	.	.	4f\	.
4c/	.	.	4e-\	.
=26	=26	=26	=26	=26
!	!	!	!	!LO:HP:b=2
2.dn/	2.BB-\)	2.b-/)	2.f\)	[ > ]
=27	=27	=27	=27	=27
(8.B-/L	2.r	2.rdd	2.rg	pp
16A/Jk	.	.	.	.
4B-/	.	.	.	<
4F/	.	.	.	[
=28	=28	=28	=28	=28
4G/	2.r	2.rdd	2.rg	>
4D/	.	.	.	.
4E-/)	.	.	.	]
=29	=29	=29	=29	=29
(2F/	4r	4r	4ryy	<
.	4r	4r	4ryy	.
!LO:TX:b=2:i:t=Ped.	!	!	!LO:TX:t=P:problem=drugie pp u dołu systemu	!LO:DY:a
4A/	(4FF\	4f/	4e-\	[[ pp
=30	=30	=30	=30	=30
2.F/)	2.BB-;\)	2.d;/	2.B-\	> ]
*v	*v	*	*	*
*	*v	*v	*
==	==	==
*-	*-	*-
!!!system-decoration: {(s1,s2)}
!!!ENC: Kamil Watkowski
!!!END: 2021-08-09
